X: 2574
T: Ballymena Boat Train, The
R: barndance
M: 4/4
K: Gmajor
BA|~G3A BAGF|EEcE D3A|Bdde dBGA|BAAB AedB|
~G3A BAGF|EEcE D3A|Bdde dBGB|1 AGAB G2dB:|2 AGAB G2 (3Bcd ]|
~e3f gage|dgdB G2AB|cBAG FedB|1 GABc d2Bd|
~e3f gage|dgdB G2AB|cBAG FedB|G2 g2 g2 fg:|2 GABc dedB|
~G3A BAGF|EEcE D3A|Bdde dBGB|AGAB G4 ]||

